apps/scalable/aptana.svg

<svg xmlns="http://www.w3.org/2000/svg" style="isolation:isolate" width="256" height="256"><defs><filter id="a" width="270.648" height="254.338" x="-7.32" y="2.95" filterUnits="userSpaceOnUse"><feGaussianBlur xmlns="http://www.w3.org/2000/svg" in="SourceGraphic" stdDeviation="4.294"/><feOffset xmlns="http://www.w3.org/2000/svg" dy="4" result="pf_100_offsetBlur"/><feFlood xmlns="http://www.w3.org/2000/svg" flood-opacity=".4"/><feComposite xmlns="http://www.w3.org/2000/svg" in2="pf_100_offsetBlur" operator="in" result="pf_100_dropShadow"/><feBlend xmlns="http://www.w3.org/2000/svg" in="SourceGraphic" in2="pf_100_dropShadow"/></filter></defs><g filter="url(#a)"><linearGradient id="b" x1=".733" x2=".267" y1="1.071" y2=".005" gradientTransform="matrix(244.648 0 0 228.338 5.676 11.947)" gradientUnits="userSpaceOnUse"><stop offset="0%" stop-color="#f37e40"/><stop offset="100%" stop-color="#f34f17"/></linearGradient><path fill="url(#b)" d="M165.685 11.947c74.055 0 84.639 10.557 84.639 84.544v59.251c0 73.986-10.584 84.543-84.639 84.543h-75.37c-74.055 0-84.639-10.557-84.639-84.543V96.491c0-73.987 10.584-84.544 84.639-84.544h75.37z"/></g><path fill="#FFF" d="M5.676 126.116v29.626c0 73.986 10.584 84.543 84.639 84.543h75.37c74.055 0 84.639-10.557 84.639-84.543v-29.626H5.676z" opacity=".1"/><path fill="#FFF" d="M128 11.947v228.338h37.685c74.055 0 84.639-10.557 84.639-84.543V96.491c0-73.987-10.584-84.544-84.639-84.544H128z" opacity=".2"/><g opacity=".4"><linearGradient id="c" x1=".517" x2=".517" y2="1"><stop offset="0%" stop-color="#fff"/><stop offset="12.5%" stop-opacity=".098" stop-color="#fff"/><stop offset="92.5%" stop-opacity=".098"/><stop offset="100%" stop-opacity=".498"/></linearGradient><path fill="none" stroke="url(#c)" stroke-linecap="round" stroke-linejoin="round" stroke-width="4.077" d="M165.685 11.947c74.055 0 84.639 10.557 84.639 84.544v59.251c0 73.986-10.584 84.543-84.639 84.543h-75.37c-74.055 0-84.639-10.557-84.639-84.543V96.491c0-73.987 10.584-84.544 84.639-84.544h75.37z" vector-effect="non-scaling-stroke"/></g><defs><filter id="d" width="186" height="186" x="35" y="39" filterUnits="userSpaceOnUse"><feGaussianBlur xmlns="http://www.w3.org/2000/svg" in="SourceGraphic" stdDeviation="4.294"/><feOffset xmlns="http://www.w3.org/2000/svg" dy="4" result="pf_100_offsetBlur"/><feFlood xmlns="http://www.w3.org/2000/svg" flood-opacity=".4"/><feComposite xmlns="http://www.w3.org/2000/svg" in2="pf_100_offsetBlur" operator="in" result="pf_100_dropShadow"/><feBlend xmlns="http://www.w3.org/2000/svg" in="SourceGraphic" in2="pf_100_dropShadow"/></filter></defs><path fill="#FAF8F6" d="M116.571 48c-2.056 0-3.77 7.944-4.776 19.297a62.845 62.845 0 0 0-15.19 6.384c-8.775-7.354-15.629-11.793-17.087-10.335L63.346 79.518c-1.458 1.458 2.981 8.312 10.335 17.087a62.82 62.82 0 0 0-6.328 15.19C55.968 112.8 48 114.511 48 116.571v22.858c0 2.056 7.944 3.77 19.297 4.776a62.85 62.85 0 0 0 6.361 15.224c-7.337 8.758-11.769 15.597-10.312 17.053l16.172 16.172c1.455 1.455 8.285-2.966 17.031-10.29a62.854 62.854 0 0 0 15.246 6.283C112.8 200.032 114.511 208 116.571 208h22.858c2.056 0 3.77-7.944 4.776-19.297a62.845 62.845 0 0 0 15.19-6.384c8.775 7.354 15.629 11.793 17.087 10.335l16.172-16.172c1.458-1.458-2.981-8.312-10.335-17.087a62.82 62.82 0 0 0 6.328-15.19C200.032 143.2 208 141.489 208 139.429v-22.858c0-2.056-7.944-3.77-19.297-4.776a62.85 62.85 0 0 0-6.361-15.224c7.337-8.758 11.769-15.597 10.312-17.053l-16.172-16.172c-1.455-1.455-8.285 2.966-17.031 10.29a62.854 62.854 0 0 0-15.246-6.283C143.2 55.968 141.489 48 139.429 48h-22.858zM128 99.429c15.78 0 28.571 12.791 28.571 28.571a28.57 28.57 0 1 1-57.142 0c0-15.78 12.791-28.571 28.571-28.571z" filter="url(#d)"/></svg>

<svg xmlns="http://www.w3.org/2000/svg" style="isolation:isolate" width="256" height="256" viewBox="0 0 256 256">
 <defs>
  <filter id="8LQY4UShoYjQfxuoBKRjkriDrH79TWP6" width="270.648" height="254.338" x="-7.32" y="2.95" filterUnits="userSpaceOnUse">
   <feGaussianBlur xmlns="http://www.w3.org/2000/svg" in="SourceGraphic" stdDeviation="4.294"/>
   <feOffset xmlns="http://www.w3.org/2000/svg" dx="0" dy="4" result="pf_100_offsetBlur"/>
   <feFlood xmlns="http://www.w3.org/2000/svg" flood-opacity=".4"/>
   <feComposite xmlns="http://www.w3.org/2000/svg" in2="pf_100_offsetBlur" operator="in" result="pf_100_dropShadow"/>
   <feBlend xmlns="http://www.w3.org/2000/svg" in="SourceGraphic" in2="pf_100_dropShadow" mode="normal"/>
  </filter>
 </defs>
 <g filter="url(#8LQY4UShoYjQfxuoBKRjkriDrH79TWP6)">
  <linearGradient id="_lgradient_229" x1=".733" x2=".267" y1="1.071" y2=".005" gradientTransform="matrix(244.648,0,0,228.338,5.676,11.947)" gradientUnits="userSpaceOnUse">
   <stop offset="0%" style="stop-color:rgb(243,126,64)"/>
   <stop offset="100%" style="stop-color:rgb(243,79,23)"/>
  </linearGradient>
  <path fill="url(#_lgradient_229)" d="M 165.685 11.947 C 239.74 11.947 250.324 22.504 250.324 96.491 L 250.324 155.742 C 250.324 229.728 239.74 240.285 165.685 240.285 L 90.315 240.285 C 16.26 240.285 5.676 229.728 5.676 155.742 L 5.676 96.491 C 5.676 22.504 16.26 11.947 90.315 11.947 L 165.685 11.947 Z"/>
 </g>
 <g opacity=".1">
  <path fill="#FFFFFF" d="M 5.676 126.116 L 5.676 155.742 C 5.676 229.728 16.26 240.285 90.315 240.285 L 165.685 240.285 C 239.74 240.285 250.324 229.728 250.324 155.742 L 250.324 126.116 L 5.676 126.116 Z"/>
 </g>
 <g opacity=".2">
  <path fill="#FFFFFF" d="M 128 11.947 L 128 240.285 L 165.685 240.285 C 239.74 240.285 250.324 229.728 250.324 155.742 L 250.324 96.491 C 250.324 22.504 239.74 11.947 165.685 11.947 L 128 11.947 Z"/>
 </g>
 <g opacity=".4">
  <linearGradient id="_lgradient_230" x1=".517" x2=".517" y1="0" y2="1">
   <stop offset="0%" style="stop-color:rgb(255,255,255)"/>
   <stop offset="12.5%" stop-opacity=".098" style="stop-color:rgb(255,255,255)"/>
   <stop offset="92.5%" stop-opacity=".098" style="stop-color:rgb(0,0,0)"/>
   <stop offset="100%" stop-opacity=".498" style="stop-color:rgb(0,0,0)"/>
  </linearGradient>
  <path fill="none" stroke="url(#_lgradient_230)" stroke-linecap="round" stroke-linejoin="round" stroke-width="4.077" d="M 165.685 11.947 C 239.74 11.947 250.324 22.504 250.324 96.491 L 250.324 155.742 C 250.324 229.728 239.74 240.285 165.685 240.285 L 90.315 240.285 C 16.26 240.285 5.676 229.728 5.676 155.742 L 5.676 96.491 C 5.676 22.504 16.26 11.947 90.315 11.947 L 165.685 11.947 Z" vector-effect="non-scaling-stroke"/>
 </g>
 <defs>
  <filter id="XdOS34gRO5ZjmcD8CVycDOMBtBtEXpex" width="186" height="186" x="35" y="39" filterUnits="userSpaceOnUse">
   <feGaussianBlur xmlns="http://www.w3.org/2000/svg" in="SourceGraphic" stdDeviation="4.294"/>
   <feOffset xmlns="http://www.w3.org/2000/svg" dx="0" dy="4" result="pf_100_offsetBlur"/>
   <feFlood xmlns="http://www.w3.org/2000/svg" flood-opacity=".4"/>
   <feComposite xmlns="http://www.w3.org/2000/svg" in2="pf_100_offsetBlur" operator="in" result="pf_100_dropShadow"/>
   <feBlend xmlns="http://www.w3.org/2000/svg" in="SourceGraphic" in2="pf_100_dropShadow" mode="normal"/>
  </filter>
 </defs>
 <g filter="url(#XdOS34gRO5ZjmcD8CVycDOMBtBtEXpex)">
  <path fill="#FAF8F6" d="M 116.571 48 C 114.515 48 112.801 55.944 111.795 67.297 C 106.473 68.749 101.366 70.896 96.605 73.681 C 87.83 66.327 80.976 61.888 79.518 63.346 L 63.346 79.518 C 61.888 80.976 66.327 87.83 73.681 96.605 C 70.915 101.369 68.787 106.476 67.353 111.795 C 55.968 112.8 48 114.511 48 116.571 L 48 139.429 C 48 141.485 55.944 143.199 67.297 144.205 C 68.739 149.537 70.878 154.656 73.658 159.429 C 66.321 168.187 61.889 175.026 63.346 176.482 L 79.518 192.654 C 80.973 194.109 87.803 189.688 96.549 182.364 C 101.333 185.119 106.459 187.231 111.795 188.647 C 112.8 200.032 114.511 208 116.571 208 L 139.429 208 C 141.485 208 143.199 200.056 144.205 188.703 C 149.527 187.251 154.634 185.104 159.395 182.319 C 168.17 189.673 175.024 194.112 176.482 192.654 L 192.654 176.482 C 194.112 175.024 189.673 168.17 182.319 159.395 C 185.085 154.631 187.213 149.524 188.647 144.205 C 200.032 143.2 208 141.489 208 139.429 L 208 116.571 C 208 114.515 200.056 112.801 188.703 111.795 C 187.261 106.463 185.122 101.344 182.342 96.571 C 189.679 87.813 194.111 80.974 192.654 79.518 L 176.482 63.346 C 175.027 61.891 168.197 66.312 159.451 73.636 C 154.667 70.881 149.541 68.769 144.205 67.353 C 143.2 55.968 141.489 48 139.429 48 L 116.571 48 Z M 128 99.429 C 143.78 99.429 156.571 112.22 156.571 128 C 156.571 135.578 153.561 142.845 148.203 148.203 C 142.845 153.561 135.578 156.571 128 156.571 C 120.422 156.571 113.155 153.561 107.797 148.203 C 102.439 142.845 99.429 135.578 99.429 128 C 99.429 112.22 112.22 99.429 128 99.429 L 128 99.429 Z"/>
 </g>
</svg>
